X:89
T:Lord President Forbes
T:Tighearna Chuil Fhodair
R:Slow Strathspey
S:Simon Fraser Collection
N:No.222
O:Scottish
M:C
L:1/8
Q:1/4=100
K:A
E|C>FA>F E>C A,<B,|C>FA>B ~c2 c<f|C>FA>F E>C A,<d|c>B A>G F2F:|
~c|f>ga>g fcc^e|f>ga>f g2 f^e|f>ga>g fcc>a|g>ab>g f2 f>c|f>ga>g fcc^e|
f>ga>f g2 f^e|a>cd>B c>A ^E<C|c>BA>G F2F||

